X:349
T: Falscher Sinn (81b), S. 222f
N: T0238
O: Luxemburg
S: Singendes Volk, Esch-Alzette 1937 posth.]
N: Heffingen, Anna Kimmel, 10,3,1933
N: (81c)- Straen, fff Witry, 6.12.1932
R: Liebeslieder]
M: 4/4
L: 1/8
K: D
DF | A2A2A2GE | F2F2E2
E2 | F2F2G2B2 | A2z4
A2 | d2d2dcBA | B4A2z2 |
G2BGF2
AA | B2AGF2E2 | D4z2

@@@ Tune index: 8403
